build/logo/DockerSolid.svg

<svg xmlns="http://www.w3.org/2000/svg" fill="none" viewBox="0 0 24 24" focusable="false"><path d="M0 0H24V24H0z"/><path fill="#74767B" fill-rule="evenodd" d="M9.9101 3.54614C9.56543 3.54614 9.28605 3.83716 9.28605 4.19614L9.28605 8.01172L5.62287 8.01172C5.27825 8.01172 4.99887 8.30273 4.99887 8.66172L4.99887 12.4753L3.81443 12.4753C3.46981 12.4753 3.19043 12.7664 3.19043 13.1253C3.19043 15.1774 3.82882 17.1265 5.06196 18.5712C6.30314 20.0253 8.11584 20.9305 10.3766 20.9305C15.4297 20.9305 17.9488 17.4573 19.106 15.4809C19.4853 15.437 19.9452 15.3476 20.3994 15.1277C20.9638 14.8544 21.3951 14.3569 21.6659 13.9834C21.8338 13.7519 21.9891 13.5089 22.1165 13.2506C22.2423 12.9935 22.1909 12.6795 21.9895 12.4815C21.8424 12.3389 21.6836 12.2007 21.5244 12.0732C21.2701 11.8696 20.8878 11.5932 20.5013 11.4542C20.2203 11.3531 19.9068 11.3303 19.6753 11.328C19.603 11.0993 19.4902 10.8338 19.3145 10.5775C19.0861 10.2445 18.6531 9.86484 18.341 9.60705C18.1359 9.43756 17.9266 9.27279 17.7123 9.11594C17.5641 9.00779 17.3781 8.97197 17.2026 9.01778C17.0271 9.06359 16.8793 9.18651 16.7975 9.35467C16.7006 9.5547 16.6091 9.75772 16.5205 9.96192C16.375 10.2974 16.1926 10.7473 16.0899 11.1233C15.9689 11.5658 15.9259 12.0406 15.9488 12.4753L14.8211 12.4753L14.8211 4.19614C14.8211 3.83716 14.5417 3.54614 14.1971 3.54614L9.9101 3.54614ZM13.5731 8.01172L13.5731 4.84614L10.5341 4.84614L10.5341 8.01172L13.5731 8.01172ZM10.5341 9.31182L13.5731 9.31182L13.5731 12.4753L10.5341 12.4753L10.5341 9.31182ZM6.24687 12.4753L9.28592 12.4753L9.28592 9.31172L6.24687 9.31172L6.24687 12.4753Z"/></svg>

<svg xmlns="http://www.w3.org/2000/svg" fill="none" viewBox="0 0 24 24" focusable="false"><path fill="#74767B" fill-rule="evenodd" d="M9.91 3.54c-.35 0-.63.29-.63.65v3.82H5.62c-.35 0-.63.29-.63.65v3.81H3.81c-.35 0-.62.29-.62.65 0 2.05.63 4 1.87 5.45s3.05 2.36 5.31 2.36c5.05 0 7.57-3.48 8.73-5.45.38-.05.84-.14 1.29-.36.57-.27 1-.77 1.27-1.14.17-.23.32-.48.45-.73a.65.65 0 0 0-.13-.77c-.14-.15-.3-.28-.46-.41-.25-.21-.64-.48-1.02-.62-.28-.1-.6-.12-.83-.13-.07-.23-.18-.49-.36-.75-.23-.33-.66-.71-.97-.97a27 27 0 0 0-.63-.49.62.62 0 0 0-.51-.1c-.18.05-.33.17-.41.34-.09.2-.19.4-.27.61-.15.33-.33.78-.44 1.16-.12.44-.16.92-.14 1.35h-1.12V4.19c0-.36-.28-.65-.63-.65zm3.66 4.47V4.84h-3.04v3.17zm-3.04 1.3h3.04v3.16h-3.04zm-4.29 3.16h3.04V9.31H6.24z"/></svg>
